assets/svgs/misc-grey/MiscGrey17.svg

<svg width="45" height="47" viewBox="0 0 45 47" fill="none" xmlns="http://www.w3.org/2000/svg">
<path fill-rule="evenodd" clip-rule="evenodd" d="M19.83 9.99997H24.36V14.53C24.36 15.36 25.03 16.03 25.86 16.03C26.69 16.03 27.36 15.36 27.36 14.53V9.99997H31.89C32.72 9.99997 33.39 9.32997 33.39 8.49997C33.39 7.66997 32.72 6.99997 31.89 6.99997H27.36V2.46997C27.36 1.63997 26.69 0.969971 25.86 0.969971C25.03 0.969971 24.36 1.63997 24.36 2.46997V6.99997H19.83C19 6.99997 18.33 7.66997 18.33 8.49997C18.33 9.32997 19 9.99997 19.83 9.99997ZM36.28 40.88C34.62 40.88 33.28 42.24 33.28 43.9C33.28 45.57 34.62 46.93 36.28 46.93C37.94 46.93 39.29 45.57 39.29 43.9C39.29 42.24 37.94 40.88 36.28 40.88ZM15.15 43.9C15.15 42.24 16.5 40.88 18.16 40.88C19.81 40.88 21.16 42.24 21.16 43.9C21.16 45.57 19.81 46.93 18.16 46.93C16.5 46.93 15.15 45.57 15.15 43.9ZM38.25 34.64H15.64L12.31 21.92L41.18 21.95L38.25 34.64ZM44.24 19.52C43.95 19.16 43.52 18.95 43.06 18.95L11.52 18.92L10.56 15.24C10.39 14.58 9.79004 14.12 9.11004 14.12H2.04004C1.21004 14.12 0.540039 14.79 0.540039 15.62C0.540039 16.45 1.21004 17.12 2.04004 17.12H7.95004L8.91004 20.76C8.91004 20.79 8.92004 20.81 8.92004 20.83L13.03 36.52C13.2 37.18 13.8 37.64 14.48 37.64H39.45C40.15 37.64 40.75 37.16 40.91 36.48L44.52 20.79C44.63 20.34 44.52 19.88 44.24 19.52Z" fill="#1A1919"/>
</svg>

<svg xmlns="http://www.w3.org/2000/svg" fill="none" viewBox="0 0 45 47"><path fill="#1A1919" fill-rule="evenodd" d="M19.83 10h4.53v4.53c0 .83.67 1.5 1.5 1.5s1.5-.67 1.5-1.5V10h4.53c.83 0 1.5-.67 1.5-1.5S32.72 7 31.89 7h-4.53V2.47c0-.83-.67-1.5-1.5-1.5s-1.5.67-1.5 1.5V7h-4.53c-.83 0-1.5.67-1.5 1.5S19 10 19.83 10zm16.45 30.88c-1.66 0-3 1.36-3 3.02 0 1.67 1.34 3.03 3 3.03s3.01-1.36 3.01-3.03c0-1.66-1.35-3.02-3.01-3.02zM15.15 43.9c0-1.66 1.35-3.02 3.01-3.02 1.65 0 3 1.36 3 3.02 0 1.67-1.35 3.03-3 3.03-1.66 0-3.01-1.36-3.01-3.03zm23.1-9.26H15.64l-3.33-12.72 28.87.03-2.93 12.69zm5.99-15.12c-.29-.36-.72-.57-1.18-.57l-31.54-.03-.96-3.68c-.17-.66-.77-1.12-1.45-1.12H2.04c-.83 0-1.5.67-1.5 1.5s.67 1.5 1.5 1.5h5.91l.96 3.64c0 .03.01.05.01.07l4.11 15.69c.17.66.77 1.12 1.45 1.12h24.97c.7 0 1.3-.48 1.46-1.16l3.61-15.69c.11-.45 0-.91-.28-1.27z" clip-rule="evenodd"/></svg>
